X:1
T:Psalm 74
T:V 10
L:1/4
M:18/4
I:linebreak $
K:F
V:1 treble nm="Pipe Organ" snm="Org."
V:1
 c2 A B c2 c2 A B G G F3 z |$ F2 A B c2 B2 A G A c =B2 c3 z |$ c2 B A G2 c2 B A B c d2 c3 z |$ %3
w: Mag die ont- waak, u hand, en hul ver- strooi-|U wat voor- heen in storm- see al die dra- ke,|see- mon- sters, Le- vi- a- tans o- pe ka- ke|
[M:16/4] G2 A B c2 G2 A B G G F4 |] %4
w: oor- wel- dig het, die roof- ge- diert' ten prooi.|

